**kern	**text
*clefG2	*
*k[b-e-a-]	*
*M4/4	*
*MM166	*
=1	=1
1r	.
=2	=2
1r	.
=3	=3
1r	.
=4	=4
1r	.
=5	=5
1r	.
=6	=6
1r	.
=7	=7
1r	.
=8	=8
1r	.
=9	=9
1r	.
=10	=10
1r	.
=11	=11
1r	.
=12	=12
1r	.
=13	=13
1r	.
=14	=14
1r	.
=15	=15
16r	.
[8.g	ゆ
16gKL]	.
[8.ccJ	へ
8.ccL]	.
[16gJk	り
16gKL]	.
[8.gJ	こ
=16	=16
8.gL]	.
[16fJk	い
16f]	.
16r	.
16r	.
[16e-	く
16e-KL]	.
8a-	ま
[16a-Jk	え
16a-KL]	.
8.g'J	に
=17	=17
16r	.
[8.e-	ゆ
16e-KL]	.
8.fJ	へ
16fKL	い
8f	じゃ
*clefF4	*
[16B-Jk	り
16B-KL]	.
[8.B-J	こ
=18	=18
16B-KL]	.
8B-	に
[16B-Jk	な
16B-KL]	.
8B-	ん
[16GJk	ぎ
16GKL]	.
[8.B-J	だ
16B-LL]	.
*clefG2	*
16cJ	り
8c'J	ん
=19	=19
16r	.
[8.g	ゆ
16gKL]	.
[8.ccJ	へ
8.ccL]	.
[16gJk	い
32.gLLL]	.
64gJJK	す
8.ee-J	と
=20	=20
8.ee-'L	ぷ
[16fJk	し
16f]	.
16r	.
16r	.
[16e-	て
16e-KL]	.
8a-	な
[16a-Jk	い
16a-KL]	.
8.g'J	し
=21	=21
16r	.
8.e-	か
16e-KL	ん
8.fJ	べ
16fKL	ん
8f	に
*clefF4	*
[16B-Jk	し
16B-KL]	.
8.B-J	と
=22	=22
16B-KL	い
8B-	て
[16B-Jk	な
8B-L]	.
16B-L	ん
[16GJJ	て
16GKL]	.
8B-	ざ
[16B-Jk	ん
16B-KL]	.
*clefG2	*
8c	に
16cJk	ん
=23	=23
4r	.
8r	.
16r	.
[16e-	ひ
16e-KL]	.
8g	と
[16e-Jk	さ
16e-KL]	.
8g	ま
[16e-Jk	ね
=24	=24
16e-KL]	.
8g	が
[16e-Jk	う
16e-KL]	.
8g	か
[16gJk	け
16gKL]	.
8g	ら
[16a-Jk	の
16a-KL]	.
8g	あ
16gJk	い
=25	=25
8.fL	ろ
[16e-Jk	に
16e-]	.
16r	.
16r	.
[16e-	だ
16e-KL]	.
8g	れ
[16e-Jk	も
16e-KL]	.
8g	が
[16e-Jk	ね
=26	=26
16e-KL]	.
8g	が
[16e-Jk	う
16e-KL]	.
8g	む
[16gJk	き
16gKL]	.
8g	し
[16fJk	つ
16fKL]	.
8.e-J	な
=27	=27
8.dL	よ
[16B-Jk	な
16B-]	.
16r	.
16r	.
[16e-	ひ
16e-KL]	.
8g	と
[16e-Jk	あ
16e-KL]	.
8g	し
[16e-Jk	さ
=28	=28
16e-KL]	.
8g	き
[16e-Jk	に
16e-KL]	.
8g	は
[16gJk	じ
16gKL]	.
8g	め
[16a-Jk	て
16a-KL]	.
8g	た
16gJk	い
=29	=29
8.fL	よ
[16e-Jk	な
16e-]	.
16r	.
16r	.
[16e-	さ
16e-KL]	.
8g	き
[16e-Jk	が
16e-KL]	.
8g	み
[16e-Jk	え
=30	=30
16e-KL]	.
8g	な
[16a-Jk	い
16a-KL]	.
[8.bnJ	ば
16bKL]	.
8.gJ	じ
16gKL	ん
8.b'J	は
=31	=31
16r	.
[8.dd	ぴ
16ddKL]	.
[8.ccJ	しょ
16cc]	.
16r	.
8r	.
4r	.
=32	=32
1r	.
=33	=33
2r	.
16r	.
16gLL	な
16g	い
[16e-JJ	の
16e-KL]	.
8g	あ
[16gJk	ら
=34	=34
16gKL]	.
8g	た
[16e-Jk	に
16e-KL]	.
8g	お
[16gJk	ね
16gKL]	.
8g	が
[16a-Jk	い
16a-KL]	.
8.gJ	ひ
=35	=35
8.fL	と
[16e-Jk	つ
16e-]	.
16r	.
8r	.
16r	.
16gLL	あ
16g	い
[16e-JJ	も
16e-KL]	.
8g	か
[16gJk	わ
=36	=36
16gKL]	.
8g	ら
[16e-Jk	ず
16e-KL]	.
8g	お
[16gJk	ま
16gKL]	.
8g	け
[16a-Jk	に
16a-KL]	.
8b-	わ
16gJk	に
=37	=37
16gKL	ん
8f	わ
16gJk	に
4g'	ん
16r	.
16gLL	な
16g	い
[16e-JJ	の
16e-KL]	.
8g	あ
[16gJk	な
=38	=38
16gKL]	.
8g	た
[16e-Jk	に
16e-KL]	.
8g	お
[16gJk	ね
16gKL]	.
8g	が
[16a-Jk	い
16a-KL]	.
8.gJ	ひ
=39	=39
8.fL	と
[16e-Jk	つ
16e-]	.
16r	.
8r	.
16r	.
8gL	は
[16e-Jk	り
16e-KL]	.
8g	つ
[16gJk	め
=40	=40
16gKL]	.
8g	た
[16e-Jk	お
16e-KL]	.
[8.bnJ	も
16bKL]	.
[8.gJ	い
16gKL]	.
[8.bJ	こ
=41	=41
16bKL]	.
[8.ddJ	め
16ddKL]	.
8.ee-J	れ
16ee-KL	ふ
8.ccJ	さ
16ccKL	い
8.ee-J	ら
=42	=42
16ee-KL	い
8.ccJ	さ
8.cc'L	い
[16ffJk	は
8.ffL]	.
[16ee-Jk	お
16ee-KL]	.
8ff	む
[16ggJk	き
=43	=43
16ggKL]	.
8ff	だ
[16ee-Jk	し
16ee-KL]	.
[8.ccJ	て
16cc]	.
16r	.
16r	.
[16cc	ぱ
16cc]	.
16r	.
16r	.
[16cc	ぱ
=44	=44
8.ccL]	.
[16ccJk	ぱ
16cc]	.
16r	.
16r	.
[16bn	て
16bKL]	.
8cc	れ
[16ddJk	く
16ddKL]	.
8ee-	さ
[16ddJk	い
=45	=45
16ddKL]	.
8.cc'J	ね
16r	.
8.ee-	れ
16ee-KL	ふ
8.ccJ	さ
16ccKL	い
8.ee-J	ら
=46	=46
16ee-KL	い
8.ccJ	さ
8.cc'L	い
[16ffJk	は
8.ffL]	.
[16ee-Jk	お
16ee-KL]	.
8ff	つ
[16ggJk	き
=47	=47
16ggKL]	.
8ff	だ
[16ee-Jk	し
16ee-KL]	.
[8.ccJ	て
16cc]	.
16r	.
16r	.
[16cc	ぱ
16cc]	.
16r	.
16r	.
[16cc	ぱ
=48	=48
8.ccL]	.
[16ccJk	ぱ
16cc]	.
16r	.
16r	.
[16cc	は
16ccKL]	.
8.bn'J	は
16r	.
[8.ee-	ゆ
=49	=49
16ee-KL]	.
[8.ddJ	あ
16ddKL]	.
8cc	き
16ccJk	ん
2r	.
=50	=50
2r	.
4r	.
16r	.
[8.ee-	ゆ
=51	=51
16ee-KL]	.
[8.ddJ	あ
16ddKL]	.
8cc	き
16ccJk	ん
2r	.
=52	=52
1r	.
=53	=53
1r	.
=54	=54
1r	.
=55	=55
1r	.
=56	=56
1r	.
=57	=57
1r	.
=58	=58
1r	.
=59	=59
4r	.
16r	.
8gL	む
[16gJk	じゃ
16gKL]	.
8g	き
[16e-Jk	に
16e-KL]	.
8g	あ
[16gJk	そ
=60	=60
16gKL]	.
8.g'J	ぶ
16r	.
16gLL	き
16g	た
16gJJ	い
16gLL	き
16g	た
16g	い
[16a-JJ	の
16a-KL]	.
8b-	だ
16gJk	り
=61	=61
16gKL	ん
8f	だ
16gJk	り
16gKL	ん
8g	け
[16gJk	な
16gKL]	.
8g	げ
[16e-Jk	に
16e-KL]	.
8g	わ
[16gJk	ら
=62	=62
16gKL]	.
8.g'J	う
16r	.
16dLL	い
16d	た
16dJJ	い
16dLL	い
16d	た
16d	い
[16e-JJ	の
16e-KL]	.
8d	き
[16cJk	え
=63	=63
16cKL]	.
8.Bn'J	る
16r	.
8gL	ぶ
[16gJk	ざ
16gKL]	.
8g	ま
[16e-Jk	に
16e-KL]	.
8g	し
[16gJk	ね
=64	=64
16gKL]	.
8.g'J	る
16r	.
16gLL	に
16g	が
16gJJ	い
16gLL	お
16g	も
16g	い
[16a-JJ	も
16a-KL]	.
8b-	な
[16gJk	く
=65	=65
16gKL]	.
8f	な
[16gJk	て
16gKL]	.
8g	ら
[16gJk	ら
16gKL]	.
8g	ら
[16e-Jk	ぶ
16e-KL]	.
8g	ら
[16gJk	た
=66	=66
16gKL]	.
8.g'J	た
16r	.
16dLL	き
16d	ら
16dJJ	い
16dLL	き
16d	ら
16d	い
[16e-JJ	の
16e-LL]	.
16g	さ
16g	い
16fJJ	て
=67	=67
16fLL	い
16e-	な
16e-	い
[16dJJ	て
16dKL]	.
8c	だ
16cJk	ん
16r	.
16gLL	ま
16g	い
[16e-JJ	ど
16e-KL]	.
8g	あ
[16gJk	ら
=68	=68
16gKL]	.
8g	た
[16e-Jk	に
16e-KL]	.
8g	お
[16gJk	ね
16gKL]	.
8g	が
[16a-Jk	い
16a-KL]	.
8.gJ	ひ
=69	=69
8.fL	と
[16e-Jk	つ
16e-]	.
16r	.
8r	.
16r	.
16gLL	あ
16g	い
[16e-JJ	も
16e-KL]	.
8g	か
[16gJk	わ
=70	=70
16gKL]	.
8g	ら
[16e-Jk	ず
16e-KL]	.
8g	ぴ
[16gJk	か
16gKL]	.
8g	ぷ
[16a-Jk	の
16a-KL]	.
8b-	わ
16gJk	に
=71	=71
16gKL	ん
8f	わ
16gJk	に
4g'	ん
16r	.
16gLL	な
16g	い
[16e-JJ	の
16e-KL]	.
8g	あ
[16gJk	な
=72	=72
16gKL]	.
8g	た
[16e-Jk	に
16e-KL]	.
8g	お
[16gJk	ね
16gKL]	.
8g	が
[16a-Jk	い
16a-KL]	.
8.gJ	ひ
=73	=73
8.fL	と
[16e-Jk	つ
16e-]	.
16r	.
8r	.
16r	.
8gL	は
[16e-Jk	り
16e-KL]	.
8g	つ
[16gJk	め
=74	=74
16gKL]	.
8g	た
[16e-Jk	お
16e-KL]	.
[8.bnJ	も
16bKL]	.
[8.gJ	い
16gKL]	.
[8.bJ	こ
=75	=75
16bKL]	.
[8.ddJ	め
16ddKL]	.
8.ee-J	れ
16ee-KL	ふ
8.ccJ	さ
16ccKL	い
8.ee-J	ら
=76	=76
16ee-KL	い
8.ccJ	さ
8.cc'L	い
[16ffJk	は
8.ffL]	.
[16ee-Jk	お
16ee-KL]	.
8ff	む
[16ggJk	き
=77	=77
16ggKL]	.
8ff	だ
[16ee-Jk	し
16ee-KL]	.
[8.ccJ	て
16cc]	.
16r	.
16r	.
[16cc	ぱ
16cc]	.
16r	.
16r	.
[16cc	ぱ
=78	=78
8.ccL]	.
[16ccJk	ぱ
16cc]	.
16r	.
16r	.
[16bn	じゃ
16bKL]	.
8cc	ま
[16ddJk	く
16ddKL]	.
8ee-	さ
[16ddJk	い
=79	=79
16ddKL]	.
8.cc'J	ね
16r	.
8.ee-	れ
16ee-KL	ふ
8.ccJ	さ
16ccKL	い
8.ee-J	ら
=80	=80
16ee-KL	い
8.ccJ	さ
8.cc'L	い
[16ffJk	は
8.ffL]	.
[16ee-Jk	お
16ee-KL]	.
8ff	つ
[16ggJk	き
=81	=81
16ggKL]	.
8ff	だ
[16ee-Jk	し
16ee-KL]	.
[8.ccJ	て
16cc]	.
16r	.
16r	.
[16cc	ぱ
16cc]	.
16r	.
16r	.
[16cc	ぱ
=82	=82
8.ccL]	.
[16ccJk	ぱ
16cc]	.
16r	.
16r	.
[16cc	は
16ccKL]	.
8.bn'J	は
16r	.
[8.ee-	ゆ
=83	=83
16ee-KL]	.
[8.ddJ	あ
16ddKL]	.
8cc	き
16ccJk	ん
2r	.
=84	=84
2r	.
4r	.
16r	.
[8.een	ゆ
=85	=85
16eeKL]	.
[8.ee-XJ	あ
16ee-KL]	.
8dd-X	き
16dd-Jk	ん
2r	.
=86	=86
1r	.
=87	=87
1r	.
=88	=88
2r	.
4r	.
16r	.
[8.een	ゆ
=89	=89
16eeKL]	.
[8.ee-XJ	あ
16ee-KL]	.
8dd-X	き
16dd-Jk	ん
2r	.
==	==
*-	*-
